svg/grain.svg

<svg xmlns="http://www.w3.org/2000/svg" viewBox="0 0 24 24"><path d="M10 12a2 2 0 0 0-2 2 2 2 0 0 0 2 2 2 2 0 0 0 2-2 2 2 0 0 0-2-2M6 8a2 2 0 0 0-2 2 2 2 0 0 0 2 2 2 2 0 0 0 2-2 2 2 0 0 0-2-2m0 8a2 2 0 0 0-2 2 2 2 0 0 0 2 2 2 2 0 0 0 2-2 2 2 0 0 0-2-2m12-8a2 2 0 0 0 2-2 2 2 0 0 0-2-2 2 2 0 0 0-2 2 2 2 0 0 0 2 2m-4 8a2 2 0 0 0-2 2 2 2 0 0 0 2 2 2 2 0 0 0 2-2 2 2 0 0 0-2-2m4-4a2 2 0 0 0-2 2 2 2 0 0 0 2 2 2 2 0 0 0 2-2 2 2 0 0 0-2-2m-4-4a2 2 0 0 0-2 2 2 2 0 0 0 2 2 2 2 0 0 0 2-2 2 2 0 0 0-2-2m-4-4a2 2 0 0 0-2 2 2 2 0 0 0 2 2 2 2 0 0 0 2-2 2 2 0 0 0-2-2"/></svg>

<?xml version="1.0" encoding="UTF-8"?><!DOCTYPE svg PUBLIC "-//W3C//DTD SVG 1.1//EN" "http://www.w3.org/Graphics/SVG/1.1/DTD/svg11.dtd"><svg xmlns="http://www.w3.org/2000/svg" xmlns:xlink="http://www.w3.org/1999/xlink" version="1.1" id="mdi-grain" width="24" height="24" viewBox="0 0 24 24"><path d="M10,12A2,2 0 0,0 8,14A2,2 0 0,0 10,16A2,2 0 0,0 12,14A2,2 0 0,0 10,12M6,8A2,2 0 0,0 4,10A2,2 0 0,0 6,12A2,2 0 0,0 8,10A2,2 0 0,0 6,8M6,16A2,2 0 0,0 4,18A2,2 0 0,0 6,20A2,2 0 0,0 8,18A2,2 0 0,0 6,16M18,8A2,2 0 0,0 20,6A2,2 0 0,0 18,4A2,2 0 0,0 16,6A2,2 0 0,0 18,8M14,16A2,2 0 0,0 12,18A2,2 0 0,0 14,20A2,2 0 0,0 16,18A2,2 0 0,0 14,16M18,12A2,2 0 0,0 16,14A2,2 0 0,0 18,16A2,2 0 0,0 20,14A2,2 0 0,0 18,12M14,8A2,2 0 0,0 12,10A2,2 0 0,0 14,12A2,2 0 0,0 16,10A2,2 0 0,0 14,8M10,4A2,2 0 0,0 8,6A2,2 0 0,0 10,8A2,2 0 0,0 12,6A2,2 0 0,0 10,4Z" /></svg>
